dist/img/partners/13.svg

<svg width="130" height="46" viewBox="0 0 130 46" fill="none" xmlns="http://www.w3.org/2000/svg">
<g clip-path="url(#clip0_216_877)">
<path d="M21.1089 11.0062C21.774 9.95674 22.1434 8.75734 22.1434 7.48298C22.1434 6.28358 21.8478 5.2341 21.3306 4.25959C20.7395 3.28508 20.0006 2.53545 19.1877 2.01071C18.3749 1.41101 17.4144 1.0362 16.3799 0.886276C15.3454 0.736351 13.7198 0.586426 11.5769 0.586426H0.714844V28.0977H9.9513C13.4242 28.0227 15.641 28.0227 16.5277 27.9477C18.0055 27.7978 19.1877 27.348 20.2222 26.5984C21.2567 25.9238 21.9956 24.9492 22.5868 23.7498C23.1779 22.5504 23.4735 21.351 23.4735 20.0767C23.4735 18.5025 23.0301 17.1531 22.1434 15.9537C21.2567 14.7543 20.0006 13.9298 18.301 13.48C19.4094 12.8803 20.37 12.1307 21.1089 11.0062ZM16.7493 8.30756C16.7493 9.20711 16.4538 9.88178 15.9365 10.4815C15.4193 11.0062 14.6804 11.381 13.7198 11.456C13.2025 11.531 11.8725 11.531 9.72962 11.531H6.10893V5.15914H9.28627C11.8725 5.15914 13.4242 5.2341 13.9414 5.2341C14.8281 5.38403 15.5671 5.68388 16.0104 6.20861C16.5277 6.73335 16.7493 7.48298 16.7493 8.30756ZM17.7099 19.8518C17.7099 20.8263 17.4144 21.6509 16.8971 22.1756C16.3799 22.7753 15.7148 23.0752 14.902 23.3001C14.3848 23.45 13.1286 23.45 11.1336 23.45H6.10893V16.1037H10.5424C12.9809 16.1037 14.6804 16.2536 15.4193 16.4785C16.1582 16.7783 16.7493 17.1531 17.1188 17.6779C17.5621 18.2776 17.7099 19.0272 17.7099 19.8518Z" fill="#E2001A"/>
<path d="M30.4921 5.45899V0.586426H25.1719V5.45899H30.4921Z" fill="#E2001A"/>
<path d="M30.4921 28.0977V8.15771H25.1719V28.0977H30.4921Z" fill="#E2001A"/>
<path d="M50.8118 15.654C50.8118 14.0798 50.7379 12.9554 50.5162 12.0558C50.3684 11.2312 49.999 10.4816 49.4817 9.88192C49.0384 9.20726 48.2995 8.68252 47.3389 8.30771C46.3783 7.85793 45.3438 7.70801 44.2354 7.70801C41.6492 7.70801 39.5064 8.83245 37.8069 11.1563V8.23275H33.0039V28.1728H38.2502V19.1773C38.2502 16.9284 38.398 15.4291 38.6197 14.6046C38.9152 13.78 39.3586 13.1053 40.0236 12.6555C40.6886 12.2058 41.5753 11.9059 42.3881 11.9059C43.0532 11.9059 43.7182 12.0558 44.1615 12.4306C44.6049 12.8055 44.9743 13.2552 45.2699 13.9299C45.4916 14.5296 45.6394 15.9539 45.6394 18.1278V28.3227H50.8857L50.8118 15.654Z" fill="#E2001A"/>
<path d="M72.758 18.0528C72.758 15.0543 71.7974 12.5806 69.9501 10.6315C68.029 8.68252 65.5905 7.70801 62.6349 7.70801C60.7137 7.70801 59.0142 8.15778 57.3886 8.98237C55.8368 9.88192 54.5807 11.0813 53.7679 12.8055C52.8812 14.4546 52.5117 16.1788 52.5117 17.9029C52.5117 20.2267 52.9551 22.1008 53.7679 23.75C54.6546 25.3242 55.8368 26.5986 57.5364 27.4232C59.162 28.2477 60.8615 28.6226 62.6349 28.6226C65.5166 28.6226 67.9551 27.5731 69.8762 25.6241C71.8713 23.6001 72.758 21.0513 72.758 18.0528ZM67.4378 18.0528C67.4378 20.0768 66.9945 21.651 66.0339 22.7005C65.1472 23.75 63.9649 24.2747 62.6349 24.2747C61.3048 24.2747 60.1964 23.75 59.2359 22.7005C58.3492 21.651 57.8319 20.0768 57.8319 18.1278C57.8319 16.1788 58.2753 14.6046 59.2359 13.5551C60.1226 12.5056 61.3048 11.9809 62.6349 11.9809C63.9649 11.9809 65.0733 12.5056 66.0339 13.5551C66.9945 14.6046 67.4378 16.1038 67.4378 18.0528Z" fill="#E2001A"/>
<path d="M80.9624 8.1578V1.11133L75.7161 4.18479V8.1578H73.3516V12.3557H75.7161V21.0514C75.7161 22.9254 75.79 24.1998 75.8639 24.7995C76.0117 25.699 76.2333 26.3737 76.6028 26.8984C76.9722 27.4232 77.4895 27.798 78.2284 28.0978C78.9673 28.3977 79.854 28.5476 80.7407 28.5476C82.2924 28.5476 83.6225 28.2478 84.8048 27.723L84.3614 23.6001C83.4747 23.9749 82.8097 24.0499 82.2924 24.0499C81.923 24.0499 81.7013 23.9749 81.4057 23.75C81.1841 23.6001 81.0363 23.3752 80.9624 23.0753C80.8885 22.7755 80.8885 21.8759 80.8885 20.2268V12.3557H84.4353V8.1578H80.9624Z" fill="#E2001A"/>
<path d="M92.7085 8.1578V1.11133L87.4622 4.18479V8.1578H85.0977V12.3557H87.4622V21.0514C87.4622 22.9254 87.5361 24.1998 87.61 24.7995C87.7578 25.699 87.9794 26.3737 88.3489 26.8984C88.7183 27.4232 89.2356 27.798 89.9745 28.0978C90.7134 28.3977 91.6001 28.5476 92.4868 28.5476C94.0385 28.5476 95.3686 28.2478 96.5509 27.723L96.1075 23.6001C95.2208 23.9749 94.5558 24.0499 94.0385 24.0499C93.6691 24.0499 93.4474 23.9749 93.1518 23.75C92.9302 23.6001 92.7824 23.3752 92.7085 23.0753C92.6346 22.7755 92.6346 21.8759 92.6346 20.2268V12.3557H96.1814V8.1578H92.7085Z" fill="#E2001A"/>
<path d="M116.723 18.0528C116.723 15.0543 115.762 12.5806 113.915 10.6315C111.994 8.68252 109.555 7.70801 106.6 7.70801C104.679 7.70801 102.979 8.15778 101.353 8.98237C99.8017 9.88192 98.5455 11.0813 97.7327 12.8055C96.846 14.4546 96.4766 16.1788 96.4766 17.9029C96.4766 20.2267 96.9199 22.1008 97.7327 23.75C98.6194 25.3242 99.8017 26.5986 101.501 27.4232C103.201 28.2477 104.826 28.6226 106.6 28.6226C109.481 28.6226 111.92 27.5731 113.841 25.6241C115.762 23.6001 116.723 21.0513 116.723 18.0528ZM111.403 18.0528C111.403 20.0768 110.959 21.651 109.999 22.7005C109.112 23.75 107.93 24.2747 106.6 24.2747C105.27 24.2747 104.161 23.75 103.201 22.7005C102.314 21.651 101.797 20.0768 101.797 18.1278C101.797 16.1788 102.24 14.6046 103.201 13.5551C104.087 12.5056 105.27 11.9809 106.6 11.9809C107.93 11.9809 109.038 12.5056 109.999 13.5551C110.885 14.6046 111.403 16.1038 111.403 18.0528Z" fill="#E2001A"/>
<path d="M0.714844 32.8955V45.4142H116.429V32.8955H0.714844Z" fill="#1F2120"/>
<path d="M125.22 14.6042C127.363 14.6042 129.284 12.9551 129.284 10.6312C129.284 8.30738 127.363 6.6582 125.22 6.6582C123.077 6.6582 121.156 8.30738 121.156 10.6312C121.23 12.9551 123.077 14.6042 125.22 14.6042ZM122.191 10.5563C122.191 8.68219 123.521 7.33287 125.294 7.33287C126.994 7.33287 128.398 8.68219 128.398 10.5563C128.398 12.4303 126.994 13.7796 125.294 13.7796C123.521 13.7796 122.191 12.5053 122.191 10.5563ZM124.481 10.8561H125.146L126.255 12.8051H127.141L125.959 10.8561C126.624 10.7811 127.141 10.4813 127.141 9.6567C127.141 8.68219 126.55 8.30738 125.442 8.30738H123.742V12.8801H124.555L124.481 10.8561ZM124.481 10.1814V8.90708H125.294C125.738 8.90708 126.255 8.98204 126.255 9.50678C126.255 10.1065 125.811 10.1814 125.294 10.1814H124.481Z" fill="#E2001A"/>
<path d="M6.84889 42.1904H8.10505V36.7931H11.2824V36.1185H3.59766V36.7931H6.84889V42.1904ZM17.1198 42.1904H18.0065V37.9176H17.1198V39.7916H13.573V37.9176H12.6863V42.1904H13.573V40.2414H17.1198V42.1904ZM19.8538 42.1904H24.8046V41.7407H20.6666V40.2414H24.4351V39.7916H20.6666V38.4423H24.5829V37.9925H19.7799V42.1904H19.8538ZM32.4893 42.1904H33.7454V36.7931H36.9228V36.1185H29.1642V36.7931H32.4893V42.1904ZM38.4006 42.1904H39.2873V37.9176H38.4006V42.1904ZM41.2085 42.1904H42.0952V40.3913H44.3858C45.1247 40.3913 46.3809 40.0165 46.1592 38.9671C46.0114 38.0675 44.6075 37.9176 44.0903 37.9176H41.2085V42.1904ZM42.0952 38.3674H44.0903C44.4597 38.3674 45.1986 38.5173 45.2725 39.042C45.3464 39.6417 44.5336 39.8666 44.3858 39.8666H42.0952V38.3674ZM47.711 42.1904H48.5977V40.3913H50.9622C51.7011 40.3913 52.9573 40.0165 52.7356 38.9671C52.5878 38.0675 51.1839 37.9176 50.6666 37.9176H47.7848V42.1904H47.711ZM48.6715 38.3674H50.6666C51.0361 38.3674 51.775 38.5173 51.8489 39.042C51.9228 39.6417 51.11 39.8666 50.9622 39.8666H48.6715V38.3674ZM54.3612 42.1904H55.2479V37.9176H54.3612V42.1904ZM62.4893 42.1904V37.9176H61.6026V41.3659L58.1297 37.9176H57.0952V42.1904H57.9819V38.7422L61.4548 42.1904H62.4893ZM67.2183 40.3913H69.2873C69.2873 40.6912 69.3612 41.2159 68.3267 41.5907C68.0312 41.7407 67.6617 41.8156 67.1445 41.8156C66.5533 41.8156 65.8883 41.6657 65.4449 41.4408C65.0016 41.141 64.6321 40.6162 64.706 40.0915C64.706 39.5668 65.0016 39.042 65.4449 38.7422C65.8883 38.4423 66.4794 38.3674 67.1445 38.3674C68.4006 38.3674 69.0656 38.8921 69.1395 39.2669H70.0262C69.9523 38.9671 69.8046 38.4423 68.6223 38.0675C68.2528 37.9176 67.6617 37.9176 67.1445 37.9176C66.1839 37.9176 65.3711 38.2174 65.0016 38.3674C64.1149 38.8171 63.8193 39.5668 63.8193 40.1665C63.8193 40.7662 64.1149 41.5158 65.0016 41.9656C65.3711 42.1155 66.1839 42.3404 66.8489 42.3404C68.1789 42.3404 68.7701 41.9656 69.2873 41.6657L69.509 42.1904H70.1001V39.8666H67.2183V40.3913ZM75.3464 42.1904H76.6026V39.5668H79.8538C80.8883 39.5668 82.6617 38.9671 82.44 37.5428C82.1444 36.1934 80.2972 35.9686 79.4844 36.0435H75.3464V42.1904ZM76.6026 36.7182H79.4105C80.0016 36.7182 81.0361 36.8681 81.1839 37.7677C81.2578 38.5922 80.0755 38.8921 79.8538 38.8921H76.6765V36.7182H76.6026ZM87.0952 37.7677C86.1346 37.7677 85.3218 38.0675 84.9523 38.2174C84.0656 38.6672 83.7701 39.4168 83.7701 40.0165C83.7701 40.6162 84.0656 41.3659 84.9523 41.8156C85.3218 41.9656 86.1346 42.2654 87.0952 42.2654C88.0558 42.2654 88.8686 41.9656 89.238 41.8156C90.1247 41.3659 90.4203 40.6162 90.4203 40.0165C90.4203 39.4168 90.1247 38.6672 89.238 38.2174C88.8686 38.0675 88.0558 37.7677 87.0952 37.7677ZM87.0952 38.2924C87.6863 38.2924 88.3513 38.4423 88.7947 38.6672C89.238 38.9671 89.6075 39.4918 89.5336 40.0165C89.5336 40.5413 89.238 41.066 88.7947 41.3659C88.3513 41.6657 87.7602 41.7407 87.0952 41.7407C86.5041 41.7407 85.839 41.5907 85.3957 41.3659C84.9523 41.066 84.5829 40.5413 84.6568 40.0165C84.6568 39.4918 84.9523 38.9671 85.3957 38.6672C85.839 38.4423 86.5041 38.2924 87.0952 38.2924ZM97.5139 41.2909L95.9622 37.8426H95.0016L93.4499 41.2909L92.1937 37.8426H91.1592L92.9326 42.1155H93.8932L95.4449 38.6672L96.9967 42.1155H97.9573L99.7307 37.8426H98.7701L97.5139 41.2909ZM101.061 42.1904H106.011V41.7407H101.947V40.2414H105.716V39.7916H101.947V38.4423H105.864V37.9925H101.061V42.1904ZM107.637 42.1904H108.524V40.3164H110.814C112.218 40.3164 111.849 41.141 111.923 41.5907C111.997 41.7407 111.997 41.9656 112.144 42.1155H113.253V41.9656C112.957 41.8156 112.883 41.5907 112.883 41.066C112.883 40.3913 112.809 40.2414 112.071 39.9416C112.736 39.6417 113.031 39.4168 112.957 38.8921C112.883 37.9176 111.849 37.7677 110.741 37.7677H107.637V42.1904ZM110.741 38.3674C111.332 38.3674 112.144 38.4423 111.997 39.1919C111.923 39.7916 111.332 39.8666 110.741 39.8666H108.524V38.4423H110.741" fill="white"/>
</g>
<defs>
<clipPath id="clip0_216_877">
<rect width="128.571" height="45" fill="white" transform="translate(0.714844 0.5)"/>
</clipPath>
</defs>
</svg>

<svg width="130" height="46" viewBox="0 0 130 46" fill="none" xmlns="http://www.w3.org/2000/svg"><g clip-path="url(#clip0_216_877)"><path d="M21.109 11.006a6.538 6.538 0 001.034-3.523c0-1.2-.295-2.249-.812-3.223-.591-.975-1.33-1.725-2.143-2.25-.813-.599-1.774-.974-2.808-1.124-1.035-.15-2.66-.3-4.803-.3H.715v27.512H9.95c3.473-.075 5.69-.075 6.577-.15 1.478-.15 2.66-.6 3.694-1.35 1.035-.674 1.774-1.649 2.365-2.848.59-1.2.887-2.399.887-3.673 0-1.575-.444-2.924-1.33-4.123-.887-1.2-2.143-2.024-3.843-2.474 1.108-.6 2.069-1.35 2.808-2.474zm-4.36-2.698c0 .9-.295 1.574-.812 2.174-.518.524-1.257.899-2.217.974-.518.075-1.848.075-3.99.075H6.109V5.159h3.177c2.587 0 4.138.075 4.655.075.887.15 1.626.45 2.07.975.517.524.738 1.274.738 2.099zm.96 11.544c0 .974-.295 1.799-.812 2.324-.517.6-1.182.9-1.995 1.124-.517.15-1.773.15-3.768.15H6.109v-7.346h4.433c2.439 0 4.138.15 4.877.375.74.3 1.33.674 1.7 1.199.443.6.59 1.35.59 2.174zM30.492 5.459V.586h-5.32V5.46h5.32zm0 22.639V8.158h-5.32v19.94h5.32zm20.32-12.444c0-1.574-.074-2.699-.296-3.598a4.57 4.57 0 00-1.034-2.174c-.444-.675-1.182-1.2-2.143-1.574-.96-.45-1.995-.6-3.104-.6-2.586 0-4.729 1.124-6.428 3.448V8.233h-4.803v19.94h5.246v-8.996c0-2.249.148-3.748.37-4.572.295-.825.739-1.5 1.404-1.95.665-.45 1.551-.75 2.364-.75.665 0 1.33.15 1.773.526.444.375.813.824 1.109 1.499.222.6.37 2.024.37 4.198v10.195h5.246l-.074-12.669zm21.946 2.399c0-2.999-.96-5.472-2.808-7.421-1.921-1.95-4.36-2.924-7.315-2.924-1.921 0-3.62.45-5.246 1.274-1.552.9-2.808 2.1-3.621 3.824-.887 1.649-1.256 3.373-1.256 5.097 0 2.324.443 4.198 1.256 5.847.887 1.574 2.069 2.849 3.768 3.673 1.626.825 3.325 1.2 5.099 1.2 2.882 0 5.32-1.05 7.241-2.999 1.995-2.024 2.882-4.573 2.882-7.571zm-5.32 0c0 2.024-.444 3.598-1.404 4.648-.887 1.049-2.07 1.574-3.4 1.574s-2.438-.525-3.398-1.574c-.887-1.05-1.404-2.624-1.404-4.573 0-1.95.443-3.523 1.404-4.573.887-1.05 2.069-1.574 3.399-1.574s2.438.525 3.399 1.574c.96 1.05 1.404 2.549 1.404 4.498zm13.524-9.895V1.11l-5.246 3.074v3.973h-2.364v4.198h2.364v8.695c0 1.874.074 3.149.148 3.748.148.9.37 1.575.739 2.1.37.524.887.899 1.625 1.199.74.3 1.626.45 2.513.45 1.551 0 2.882-.3 4.064-.825L84.36 23.6c-.886.375-1.551.45-2.069.45-.369 0-.59-.075-.886-.3-.222-.15-.37-.375-.444-.675-.074-.3-.074-1.2-.074-2.848v-7.871h3.547V8.158h-3.473zm11.747 0V1.11l-5.247 3.074v3.973h-2.364v4.198h2.364v8.695c0 1.874.074 3.149.148 3.748.148.9.37 1.575.739 2.1.37.524.887.899 1.626 1.199.738.3 1.625.45 2.512.45 1.552 0 2.882-.3 4.064-.825l-.444-4.123c-.886.375-1.551.45-2.069.45-.369 0-.59-.075-.886-.3-.222-.15-.37-.375-.444-.675-.073-.3-.073-1.2-.073-2.848v-7.871h3.546V8.158H92.71zm24.014 9.895c0-2.999-.961-5.472-2.808-7.421-1.921-1.95-4.36-2.924-7.315-2.924-1.921 0-3.621.45-5.247 1.274-1.551.9-2.807 2.1-3.62 3.824-.887 1.649-1.256 3.373-1.256 5.097 0 2.324.443 4.198 1.256 5.847.886 1.574 2.069 2.849 3.768 3.673 1.7.825 3.325 1.2 5.099 1.2 2.881 0 5.32-1.05 7.241-2.999 1.921-2.024 2.882-4.573 2.882-7.571zm-5.32 0c0 2.024-.444 3.598-1.404 4.648-.887 1.049-2.069 1.574-3.399 1.574s-2.439-.525-3.399-1.574c-.887-1.05-1.404-2.624-1.404-4.573 0-1.95.443-3.523 1.404-4.573.886-1.05 2.069-1.574 3.399-1.574s2.438.525 3.399 1.574c.886 1.05 1.404 2.549 1.404 4.498z" fill="#E2001A"/><path d="M.715 32.895v12.52h115.714v-12.52H.715z" fill="#1F2120"/><path d="M125.22 14.604c2.143 0 4.064-1.649 4.064-3.973s-1.921-3.973-4.064-3.973-4.064 1.65-4.064 3.973c.074 2.324 1.921 3.973 4.064 3.973zm-3.029-4.048c0-1.874 1.33-3.223 3.103-3.223 1.7 0 3.104 1.35 3.104 3.223 0 1.874-1.404 3.224-3.104 3.224-1.773 0-3.103-1.275-3.103-3.224zm2.29.3h.665l1.109 1.95h.886l-1.182-1.95c.665-.075 1.182-.375 1.182-1.2 0-.974-.591-1.349-1.699-1.349h-1.7v4.573h.813l-.074-2.024zm0-.675V8.907h.813c.444 0 .961.075.961.6 0 .6-.444.674-.961.674h-.813z" fill="#E2001A"/><path d="M6.849 42.19h1.256v-5.397h3.177v-.675H3.598v.675h3.25v5.397zm10.27 0h.887v-4.272h-.886v1.874h-3.547v-1.874h-.887v4.272h.887v-1.949h3.547v1.95zm2.735 0h4.95v-.45h-4.137v-1.499h3.768v-.45h-3.768v-1.349h3.916v-.45H19.78v4.198h.074zm12.635 0h1.256v-5.397h3.178v-.675h-7.759v.675h3.325v5.397zm5.912 0h.886v-4.272h-.886v4.272zm2.807 0h.887v-1.799h2.29c.74 0 1.996-.374 1.774-1.424-.148-.9-1.551-1.05-2.069-1.05h-2.882v4.273zm.887-3.823h1.995c.37 0 1.109.15 1.182.675.074.6-.738.825-.886.825h-2.29v-1.5zm5.616 3.823h.887v-1.799h2.364c.74 0 1.995-.374 1.774-1.424-.148-.9-1.552-1.05-2.07-1.05h-2.881v4.273h-.074zm.96-3.823h1.996c.37 0 1.108.15 1.182.675.074.6-.739.825-.887.825h-2.29v-1.5zm5.69 3.823h.887v-4.272h-.887v4.272zm8.128 0v-4.272h-.886v3.448l-3.473-3.448h-1.035v4.272h.887v-3.448l3.473 3.448h1.034zm4.73-1.799h2.068c0 .3.074.825-.96 1.2-.296.15-.665.225-1.183.225-.59 0-1.256-.15-1.7-.375-.442-.3-.812-.825-.738-1.35 0-.524.296-1.049.739-1.349.443-.3 1.034-.375 1.7-.375 1.256 0 1.92.525 1.995.9h.886c-.074-.3-.221-.825-1.404-1.2-.37-.15-.96-.15-1.478-.15-.96 0-1.773.3-2.142.45-.887.45-1.183 1.2-1.183 1.8 0 .6.296 1.349 1.183 1.799.37.15 1.182.374 1.847.374 1.33 0 1.921-.374 2.438-.674l.222.524h.591v-2.323h-2.882v.524zm8.127 1.8h1.257v-2.624h3.25c1.035 0 2.809-.6 2.587-2.024-.296-1.35-2.143-1.574-2.956-1.5h-4.138v6.147zm1.257-5.473h2.808c.59 0 1.625.15 1.773 1.05.074.824-1.108 1.124-1.33 1.124h-3.177v-2.174h-.074zm10.492 1.05c-.96 0-1.773.3-2.143.45-.886.45-1.182 1.199-1.182 1.798 0 .6.296 1.35 1.182 1.8.37.15 1.183.45 2.143.45.96 0 1.774-.3 2.143-.45.887-.45 1.182-1.2 1.182-1.8 0-.6-.295-1.349-1.182-1.799-.37-.15-1.182-.45-2.143-.45zm0 .524c.591 0 1.256.15 1.7.375.443.3.813.825.739 1.35 0 .524-.296 1.049-.74 1.349-.443.3-1.034.375-1.699.375-.59 0-1.256-.15-1.7-.375-.443-.3-.812-.825-.738-1.35 0-.524.295-1.049.739-1.349.443-.225 1.108-.375 1.7-.375zm10.419 2.999l-1.552-3.448h-.96L93.45 41.29l-1.256-3.448h-1.035l1.774 4.272h.96l1.552-3.448 1.552 3.448h.96l1.774-4.272h-.96l-1.257 3.448zm3.547.9h4.95v-.45h-4.064v-1.5h3.769v-.45h-3.769v-1.349h3.917v-.45h-4.803v4.198zm6.576 0h.887v-1.875h2.29c1.404 0 1.035.825 1.109 1.275.074.15.074.375.221.524h1.109v-.15c-.296-.15-.37-.374-.37-.899 0-.675-.074-.825-.812-1.124.665-.3.96-.525.886-1.05-.074-.974-1.108-1.124-2.216-1.124h-3.104v4.422zm3.104-3.824c.591 0 1.403.075 1.256.825-.074.6-.665.675-1.256.675h-2.217v-1.425h2.217" fill="#fff"/></g><defs><clipPath id="clip0_216_877"><path fill="#fff" transform="translate(.715 .5)" d="M0 0h128.571v45H0z"/></clipPath></defs></svg>
